communes/628.svg

<?xml version="1.0" encoding="UTF-8" standalone="no"?>
<svg
   xmlns:dc="http://purl.org/dc/elements/1.1/"
   xmlns:cc="http://web.resource.org/cc/"
   xmlns:rdf="http://www.w3.org/1999/02/22-rdf-syntax-ns#"
   xmlns:svg="http://www.w3.org/2000/svg"
   xmlns="http://www.w3.org/2000/svg"
   xmlns:xlink="http://www.w3.org/1999/xlink"
   xmlns:sodipodi="http://sodipodi.sourceforge.net/DTD/sodipodi-0.dtd"
   xmlns:inkscape="http://www.inkscape.org/namespaces/inkscape"
   height="763"
   width="603"
   version="1.0"
   id="svg20"
   sodipodi:version="0.32"
   inkscape:version="0.44.1"
   sodipodi:docname="Zäziwil-coat of arms.svg"
   sodipodi:docbase="F:\Mis Documentos\Mis imágenes\Encyclopédie\Escudos de Suiza">
  <metadata
     id="metadata31">
    <rdf:RDF>
      <cc:Work
         rdf:about="">
        <dc:format>image/svg+xml</dc:format>
        <dc:type
           rdf:resource="http://purl.org/dc/dcmitype/StillImage" />
        <dc:date>07-AUG-2006</dc:date>
        <dc:creator>
          <cc:Agent>
            <dc:title>Jérôme BLUM (wagner51)</dc:title>
          </cc:Agent>
        </dc:creator>
        <cc:license
           rdf:resource="http://creativecommons.org/licenses/GPL/2.0/" />
        <dc:coverage />
        <dc:description>Gabarit pour le Projet:Blasons de WIkipédia</dc:description>
        <dc:subject>
          <rdf:Bag>
            <rdf:li>blason suisse modèle gabarit projet blasons</rdf:li>
          </rdf:Bag>
        </dc:subject>
        <dc:language>fr</dc:language>
        <dc:title>Gabrit d'un blason suisse</dc:title>
      </cc:Work>
      <cc:License
         rdf:about="http://creativecommons.org/licenses/GPL/2.0/">
        <cc:permits
           rdf:resource="http://web.resource.org/cc/Reproduction" />
        <cc:permits
           rdf:resource="http://web.resource.org/cc/Distribution" />
        <cc:requires
           rdf:resource="http://web.resource.org/cc/Notice" />
        <cc:permits
           rdf:resource="http://web.resource.org/cc/DerivativeWorks" />
        <cc:requires
           rdf:resource="http://web.resource.org/cc/ShareAlike" />
        <cc:requires
           rdf:resource="http://web.resource.org/cc/SourceCode" />
      </cc:License>
    </rdf:RDF>
  </metadata>
  <defs
     id="defs29">
    <linearGradient
       id="linearGradient2893">
      <stop
         style="stop-color:#ffffff;stop-opacity:0.3137255;"
         offset="0"
         id="stop2895" />
      <stop
         id="stop2897"
         offset="0.19"
         style="stop-color:#ffffff;stop-opacity:0.25098041;" />
      <stop
         style="stop-color:#6b6b6b;stop-opacity:0.1254902;"
         offset="0.60000002"
         id="stop2901" />
      <stop
         style="stop-color:#000000;stop-opacity:0.1254902;"
         offset="1"
         id="stop2899" />
    </linearGradient>
    <linearGradient
       id="linearGradient2955">
      <stop
         style="stop-color:white;stop-opacity:0;"
         offset="0"
         id="stop2965" />
      <stop
         style="stop-color:black;stop-opacity:0.64583331;"
         offset="1"
         id="stop2959" />
    </linearGradient>
    <radialGradient
       inkscape:collect="always"
       xlink:href="#linearGradient2893"
       id="radialGradient3236"
       gradientUnits="userSpaceOnUse"
       gradientTransform="matrix(1.215027,1.531577e-24,1.464684e-23,1.266667,-839.1924,-490.4894)"
       cx="858.04236"
       cy="579.93323"
       fx="858.04236"
       fy="579.93323"
       r="300" />
  </defs>
  <sodipodi:namedview
     inkscape:window-height="682"
     inkscape:window-width="1024"
     inkscape:pageshadow="2"
     inkscape:pageopacity="0.0"
     guidetolerance="10.0"
     gridtolerance="10.0"
     objecttolerance="10.0"
     borderopacity="1.0"
     bordercolor="#666666"
     pagecolor="#ffffff"
     id="base"
     inkscape:zoom="0.48301887"
     inkscape:cx="701.12997"
     inkscape:cy="308.00578"
     inkscape:window-x="-4"
     inkscape:window-y="-4"
     inkscape:current-layer="layer2"
     showgrid="true"
     showguides="true"
     inkscape:guide-bbox="true" />
  <desc
     id="desc22">Coat of Arms of Canton of Freiburg (Fribourg)</desc>
  <g
     inkscape:groupmode="layer"
     id="layer1"
     inkscape:label="Fond écu"
     sodipodi:insensitive="true">
    <path
       id="path1899"
       d="M 1.5,1.49998 L 1.5,460.3679 C 1.5,626.6785 135.81456,761.5 301.49999,761.5 C 467.18543,761.5 601.5,626.6785 601.5,460.3679 L 601.5,1.49998 L 1.5,1.49998 z "
       style="fill:#2b5df2;fill-opacity:1" />
  </g>
  <g
     inkscape:groupmode="layer"
     id="layer2"
     inkscape:label="Meubles"
     sodipodi:insensitive="true">
    <g
       id="g7269"
       transform="matrix(4.186384,0,0,4.186384,-2608.653,-2381.109)">
      <path
         sodipodi:nodetypes="ccccssscscc"
         id="path1921"
         d="M 687.31436,671.41761 C 686.68361,689.97399 687.15072,706.20139 669.37175,724.89807 C 677.19326,732.45942 686.08832,738.23153 695.36598,743.36598 C 704.87123,738.46292 713.28902,732.47238 720.84295,725.618 C 705.66023,708.85349 701.42607,692.44035 702.68564,671.29385 C 703.82424,652.17824 708.83631,640.62997 714.08124,631.82615 C 732.198,601.41649 724.82811,587.41732 709.21466,585.99425 C 698.79567,585.04463 697.73776,581.92154 695.73197,576.53607 C 692.96341,582.19714 689.6918,586.55229 680.51462,586.89278 C 667.75403,587.36622 657.46126,601.1608 677.69791,631.66794 C 682.48627,642.2797 685.44967,655.93307 687.31436,671.41761 z "
         style="fill:white;fill-opacity:1;fill-rule:evenodd;stroke:black;stroke-width:1px;stroke-linecap:butt;stroke-linejoin:miter;stroke-opacity:1" />
      <path
         style="fill:white;fill-opacity:1;fill-rule:evenodd;stroke:black;stroke-width:1px;stroke-linecap:butt;stroke-linejoin:miter;stroke-opacity:1"
         d="M 634.57778,663 C 647.68479,663.93214 641.75295,646.82744 655.64189,643.02377 C 661.83192,641.32855 673.48646,648.61335 675.23107,665.49778 C 675.87981,671.77632 682.37467,698.49391 665.0433,694.70726 C 660.81968,693.78446 647.72568,686.46532 657.38188,671.17008 C 620.03371,698.35005 643.49288,720.61352 656.67812,719.41931 C 681.06403,717.21065 690.3143,693.65225 686.86412,663.15697 C 681.94724,619.69792 650.56216,597.19015 641.3243,600.10957 C 603.99472,611.90679 648.47282,647.78627 634.57778,663 z "
         id="path3697"
         sodipodi:nodetypes="cssscsssc" />
      <path
         sodipodi:nodetypes="ccccc"
         id="path5475"
         d="M 694.5,733 L 693.85135,673.34138 L 695.5,592.75778 L 696.03969,673.70478 L 694.5,733 z "
         style="fill:black;fill-opacity:1;fill-rule:evenodd;stroke:black;stroke-width:1px;stroke-linecap:butt;stroke-linejoin:miter;stroke-opacity:1" />
      <path
         sodipodi:nodetypes="cssscsssc"
         id="path2810"
         d="M 755,663 C 741.89299,663.93214 747.82483,646.82744 733.93589,643.02377 C 727.74586,641.32855 716.09132,648.61335 714.34671,665.49778 C 713.69797,671.77632 707.20311,698.49391 724.53448,694.70726 C 728.7581,693.78446 741.8521,686.46532 732.1959,671.17008 C 769.54407,698.35005 746.0849,720.61352 732.89966,719.41931 C 708.51375,717.21065 699.26348,693.65225 702.71366,663.15697 C 707.63054,619.69792 739.01562,597.19015 748.25348,600.10957 C 785.58306,611.90679 741.10496,647.78627 755,663 z "
         style="fill:white;fill-opacity:1;fill-rule:evenodd;stroke:black;stroke-width:1px;stroke-linecap:butt;stroke-linejoin:miter;stroke-opacity:1" />
      <rect
         ry="4.3479161"
         y="670.6521"
         x="666.1037"
         height="8.6958323"
         width="57.244213"
         id="rect3699"
         style="opacity:1;fill:white;fill-opacity:1;fill-rule:evenodd;stroke:black;stroke-width:1;stroke-miterlimit:4;stroke-dasharray:none;stroke-opacity:1" />
      <rect
         ry="3.9250925"
         y="663.00677"
         x="668.50677"
         height="7.8501849"
         width="52.472916"
         id="rect5471"
         style="opacity:1;fill:white;fill-opacity:1;fill-rule:evenodd;stroke:black;stroke-width:1.01359451;stroke-miterlimit:4;stroke-dasharray:none;stroke-opacity:1" />
      <rect
         style="opacity:1;fill:white;fill-opacity:1;fill-rule:evenodd;stroke:black;stroke-width:1.01359451;stroke-miterlimit:4;stroke-dasharray:none;stroke-opacity:1"
         id="rect5473"
         width="52.472916"
         height="7.8501849"
         x="668.50677"
         y="679.00677"
         ry="3.9250925" />
    </g>
  </g>
  <g
     inkscape:groupmode="layer"
     id="layer3"
     inkscape:label="Reflet final"
     style="display:inline"
     sodipodi:insensitive="true">
    <path
       style="fill:url(#radialGradient3236);fill-opacity:1"
       d="M 1.5,1.5 L 1.5,460.3679 C 1.5,626.67854 135.81454,761.5 301.49993,761.5 C 467.1854,761.5 601.5,626.67854 601.5,460.3679 L 601.5,1.5 L 1.5,1.5 z "
       id="path2346" />
  </g>
  <g
     inkscape:groupmode="layer"
     id="layer4"
     inkscape:label="Contour final"
     style="display:inline"
     sodipodi:insensitive="true">
    <path
       style="fill:none;fill-opacity:1;stroke:#000000;stroke-width:3;stroke-miterlimit:4;stroke-dasharray:none;stroke-opacity:1"
       d="M 1.5,1.5 L 1.5,460.36794 C 1.5,626.67854 135.81454,761.5 301.49993,761.5 C 467.1854,761.5 601.5,626.67854 601.5,460.36794 L 601.5,1.5 L 1.5,1.5 z "
       id="path3239" />
  </g>
</svg>

<?xml version="1.0" encoding="UTF-8"?>
<svg version="1.0" viewBox="0 0 603 763" xmlns="http://www.w3.org/2000/svg" xmlns:cc="http://web.resource.org/cc/" xmlns:dc="http://purl.org/dc/elements/1.1/" xmlns:rdf="http://www.w3.org/1999/02/22-rdf-syntax-ns#" xmlns:xlink="http://www.w3.org/1999/xlink">
<metadata>
<rdf:RDF>
<cc:Work rdf:about="">
<dc:format>image/svg+xml</dc:format>
<dc:type rdf:resource="http://purl.org/dc/dcmitype/StillImage"/>
<dc:date>07-AUG-2006</dc:date>
<dc:creator>
<cc:Agent>
<dc:title>Jérôme BLUM (wagner51)</dc:title>
</cc:Agent>
</dc:creator>
<cc:license rdf:resource="http://creativecommons.org/licenses/GPL/2.0/"/>
<dc:coverage/>
<dc:description>Gabarit pour le Projet:Blasons de WIkipédia</dc:description>
<dc:subject>
<rdf:Bag>
<rdf:li>blason suisse modèle gabarit projet blasons</rdf:li>
</rdf:Bag>
</dc:subject>
<dc:language>fr</dc:language>
<dc:title>Gabrit d'un blason suisse</dc:title>
</cc:Work>
<cc:License rdf:about="http://creativecommons.org/licenses/GPL/2.0/">
<cc:permits rdf:resource="http://web.resource.org/cc/Reproduction"/>
<cc:permits rdf:resource="http://web.resource.org/cc/Distribution"/>
<cc:requires rdf:resource="http://web.resource.org/cc/Notice"/>
<cc:permits rdf:resource="http://web.resource.org/cc/DerivativeWorks"/>
<cc:requires rdf:resource="http://web.resource.org/cc/ShareAlike"/>
<cc:requires rdf:resource="http://web.resource.org/cc/SourceCode"/>
</cc:License>
</rdf:RDF>
</metadata>
<defs>
<radialGradient id="a" cx="858.04" cy="579.93" r="300" gradientTransform="matrix(1.215 1.5316e-24 1.4647e-23 1.2667 -839.19 -490.49)" gradientUnits="userSpaceOnUse">
<stop stop-color="#fff" stop-opacity=".31373" offset="0"/>
<stop stop-color="#fff" stop-opacity=".25098" offset=".19"/>
<stop stop-color="#6b6b6b" stop-opacity=".12549" offset=".6"/>
<stop stop-opacity=".12549" offset="1"/>
</radialGradient>
</defs>
<desc>Coat of Arms of Canton of Freiburg (Fribourg)</desc>
<path d="m1.5 1.5v458.87c0 166.31 134.31 301.13 300 301.13 165.69 0 300-134.82 300-301.13v-458.87h-600z" fill="#2b5df2"/>
<g transform="matrix(4.1864 0 0 4.1864 -2608.7 -2381.1)" fill-rule="evenodd" stroke="#000">
<path d="m687.31 671.42c-0.63075 18.556-0.16364 34.784-17.943 53.48 7.8215 7.5614 16.717 13.333 25.994 18.468 9.5052-4.9031 17.923-10.894 25.477-17.748-15.183-16.765-19.417-33.178-18.157-54.324 1.1386-19.116 6.1507-30.664 11.396-39.468 18.117-30.41 10.747-44.409-4.8666-45.832-10.419-0.94962-11.477-4.0727-13.483-9.4582-2.7686 5.6611-6.0402 10.016-15.217 10.357-12.761 0.47344-23.053 14.268-2.8167 44.775 4.7884 10.612 7.7518 24.265 9.6164 39.75z" fill="#fff" stroke-width="1px"/>
<path d="m634.58 663c13.107 0.93214 7.1752-16.173 21.064-19.976 6.19-1.6952 17.845 5.5896 19.589 22.474 0.64874 6.2785 7.1436 32.996-10.188 29.209-4.2236-0.9228-17.318-8.2419-7.6614-23.537-37.348 27.18-13.889 49.443-0.70376 48.249 24.386-2.2087 33.636-25.767 30.186-56.262-4.9169-43.459-36.302-65.967-45.54-63.047-37.33 11.797 7.1485 47.677-6.7465 62.89z" fill="#fff" stroke-width="1px"/>
<path d="m694.5 733-0.64865-59.659 1.6486-80.584 0.53969 80.947-1.5397 59.295z" stroke-width="1px"/>
<path d="m755 663c-13.107 0.93214-7.1752-16.173-21.064-19.976-6.19-1.6952-17.845 5.5896-19.589 22.474-0.64874 6.2785-7.1436 32.996 10.188 29.209 4.2236-0.9228 17.318-8.2419 7.6614-23.537 37.348 27.18 13.889 49.443 0.70376 48.249-24.386-2.2087-33.636-25.767-30.186-56.262 4.9169-43.459 36.302-65.967 45.54-63.047 37.33 11.797-7.1485 47.677 6.7465 62.89z" fill="#fff" stroke-width="1px"/>
<rect x="666.1" y="670.65" width="57.244" height="8.6958" ry="4.3479" fill="#fff"/>
<rect x="668.51" y="663.01" width="52.473" height="7.8502" ry="3.9251" fill="#fff" stroke-width="1.0136"/>
<rect x="668.51" y="679.01" width="52.473" height="7.8502" ry="3.9251" fill="#fff" stroke-width="1.0136"/>
</g>
<g>
<path d="m1.5 1.5v458.87c0 166.31 134.31 301.13 300 301.13 165.69 0 300-134.82 300-301.13v-458.87h-600z" fill="url(#a)"/>
<path d="m1.5 1.5v458.87c0 166.31 134.31 301.13 300 301.13 165.69 0 300-134.82 300-301.13v-458.87h-600z" fill="none" stroke="#000" stroke-width="3"/>
</g>
</svg>
